dist/img/svg/ic_tg.svg

<svg width="23" height="23" viewBox="0 0 23 23" fill="none" xmlns="http://www.w3.org/2000/svg">
<path d="M11.5 0C5.14718 0 0 5.14718 0 11.5C0 17.8528 5.14718 23 11.5 23C17.8528 23 23 17.8528 23 11.5C23 5.14718 17.8528 0 11.5 0ZM17.148 7.87843L15.2607 16.7724C15.1216 17.403 14.746 17.556 14.222 17.2593L11.347 15.1401L9.96048 16.4756C9.80746 16.6286 9.67762 16.7585 9.38085 16.7585L9.58488 13.8325L14.9129 9.01915C15.1448 8.81512 14.8619 8.69919 14.5558 8.90323L7.97117 13.0488L5.13327 12.1631C4.51653 11.9683 4.50262 11.5464 5.2631 11.2496L16.3504 6.97419C16.8651 6.78871 17.3149 7.09939 17.148 7.87843Z" fill="#0088CC"/>
</svg>

<svg width="23" height="23" viewBox="0 0 23 23" fill="none" xmlns="http://www.w3.org/2000/svg"><path d="M11.5 0C5.147 0 0 5.147 0 11.5S5.147 23 11.5 23 23 17.853 23 11.5 17.853 0 11.5 0zm5.648 7.878l-1.887 8.894c-.14.631-.515.784-1.039.487l-2.875-2.119-1.387 1.336c-.153.153-.282.283-.58.283l.205-2.927 5.328-4.813c.232-.204-.051-.32-.357-.116L7.97 13.05l-2.838-.886c-.616-.195-.63-.617.13-.913L16.35 6.974c.515-.185.965.125.798.904z" fill="#08C"/></svg>
